icons-rebrand/svg/audio-call-filled.svg

<svg width="32" height="32" viewBox="0 0 32 32" fill="none" xmlns="http://www.w3.org/2000/svg">
<path d="M27.997 14C27.7319 13.9997 27.4777 13.8943 27.2902 13.7068C27.1027 13.5193 26.9973 13.2651 26.997 13C26.9711 10.9858 26.1758 9.05769 24.774 7.611C24.0391 6.80683 23.1481 6.16064 22.1555 5.71176C21.1628 5.26289 20.0892 5.02072 19 5C18.7348 5 18.4804 4.89464 18.2929 4.70711C18.1054 4.51957 18 4.26522 18 4C18 3.73478 18.1054 3.48043 18.2929 3.29289C18.4804 3.10536 18.7348 3 19 3C20.3622 3.02098 21.7058 3.31917 22.949 3.87638C24.1922 4.43358 25.3089 5.23814 26.231 6.241C27.9821 8.05821 28.9718 10.4765 28.997 13C28.9965 13.2651 28.8909 13.5191 28.7035 13.7065C28.5161 13.8939 28.2621 13.9995 27.997 14Z" fill="#0F0F0F"/>
<path d="M23.9999 14.9931C23.7347 14.9931 23.4803 14.8878 23.2928 14.7002C23.1052 14.5127 22.9999 14.2583 22.9999 13.9931C23.0521 13.3289 22.9668 12.6611 22.7493 12.0314C22.5318 11.4017 22.1868 10.8235 21.7359 10.3331C20.7224 9.42525 19.3955 8.94721 18.0359 9.00012H17.9999C17.8686 9.00038 17.7385 8.97477 17.6171 8.92476C17.4956 8.87475 17.3852 8.80131 17.2922 8.70864C17.1991 8.61596 17.1253 8.50587 17.0748 8.38465C17.0243 8.26342 16.9981 8.13344 16.9979 8.00212C16.9976 7.87079 17.0232 7.74071 17.0732 7.61928C17.1233 7.49786 17.1967 7.38747 17.2894 7.29442C17.382 7.20138 17.4921 7.1275 17.6134 7.077C17.7346 7.02651 17.8646 7.00038 17.9959 7.00012H18.0369C19.9198 6.93388 21.7521 7.61718 23.1319 8.90012C23.7799 9.57275 24.2807 10.373 24.6023 11.2499C24.9239 12.1268 25.0593 13.061 24.9999 13.9931C25.0001 14.1245 24.9745 14.2547 24.9243 14.3761C24.8741 14.4976 24.8005 14.6079 24.7076 14.7008C24.6147 14.7937 24.5043 14.8674 24.3829 14.9175C24.2614 14.9677 24.1313 14.9934 23.9999 14.9931ZM24.8609 18.8761C24.287 18.3281 23.5238 18.0226 22.7303 18.0231C21.9368 18.0237 21.174 18.3303 20.6009 18.8791C20.6009 18.8791 19.1299 20.3761 18.8399 20.6851C17.8473 20.7058 16.8611 20.523 15.9418 20.1481C15.0226 19.7732 14.1899 19.214 13.4949 18.5051C12.0965 17.1029 11.2961 15.2132 11.2619 13.2331C11.6239 12.8711 13.1219 11.3981 13.1249 11.3951C13.6882 10.83 14.0045 10.0646 14.0045 9.26662C14.0045 8.46867 13.6882 7.70326 13.1249 7.13812L10.3709 4.38612C9.79526 3.83633 9.02989 3.52954 8.23389 3.52954C7.43789 3.52954 6.67251 3.83633 6.09689 4.38612L4.62489 5.85712C2.74189 7.74012 2.38189 14.4131 9.98489 22.0171C14.8979 26.9301 19.4219 28.5171 22.5179 28.5171C23.8277 28.6109 25.1242 28.2026 26.1439 27.3751L27.6149 25.9031C28.1805 25.3357 28.4981 24.5673 28.4981 23.7661C28.4981 22.965 28.1805 22.1965 27.6149 21.6291L24.8609 18.8761Z" fill="#0F0F0F"/>
</svg>

<svg width="32" height="32" viewBox="0 0 32 32" fill="none" xmlns="http://www.w3.org/2000/svg"><path d="M27.997 14a1.001 1.001 0 0 1-1-1 7.89 7.89 0 0 0-2.223-5.389A8.029 8.029 0 0 0 19 5a1 1 0 1 1 0-2 10.033 10.033 0 0 1 7.231 3.241A9.883 9.883 0 0 1 28.997 13a1.002 1.002 0 0 1-1 1z" fill="#0F0F0F"/><path d="M24 14.993a1 1 0 0 1-1-1 4.846 4.846 0 0 0-1.264-3.66A5.24 5.24 0 0 0 18.036 9H18a1 1 0 1 1-.004-2h.041a7.115 7.115 0 0 1 5.095 1.9A6.724 6.724 0 0 1 25 13.993a.998.998 0 0 1-1 1zM24.861 18.876a3.082 3.082 0 0 0-4.26.003s-1.471 1.497-1.761 1.806a7.273 7.273 0 0 1-5.345-2.18 7.653 7.653 0 0 1-2.233-5.272c.362-.362 1.86-1.835 1.863-1.838a3.015 3.015 0 0 0 0-4.257l-2.754-2.752a3.094 3.094 0 0 0-4.274 0L4.625 5.857c-1.883 1.883-2.243 8.556 5.36 16.16 4.913 4.913 9.437 6.5 12.533 6.5a5.169 5.169 0 0 0 3.626-1.142l1.471-1.472a3.027 3.027 0 0 0 0-4.274l-2.754-2.753z" fill="#0F0F0F"/></svg>
